assets/images/icon-blockquote.svg

<svg width="59" height="59" viewBox="0 0 59 59" fill="none" xmlns="http://www.w3.org/2000/svg">
<path d="M11.4721 42.933C9.05547 40.2746 7.60547 37.3746 7.60547 32.5413C7.60547 24.083 13.6471 16.5913 22.1055 12.7246L24.2805 15.8663C16.3055 20.2163 14.6138 25.7746 14.1305 29.3996C15.3388 28.6746 17.0305 28.433 18.7221 28.6746C23.0721 29.158 26.4555 32.5413 26.4555 37.133C26.4555 39.308 25.4888 41.483 24.0388 43.1746C22.3471 44.8663 20.4138 45.5913 17.9971 45.5913C15.3388 45.5913 12.9221 44.383 11.4721 42.933ZM35.6388 42.933C33.2221 40.2746 31.7721 37.3746 31.7721 32.5413C31.7721 24.083 37.8138 16.5913 46.2721 12.7246L48.4471 15.8663C40.4721 20.2163 38.7805 25.7746 38.2971 29.3996C39.5055 28.6746 41.1971 28.433 42.8888 28.6746C47.2388 29.158 50.6221 32.5413 50.6221 37.133C50.6221 39.308 49.6555 41.483 48.2055 43.1746C46.7555 44.8663 44.5805 45.5913 42.1638 45.5913C39.5055 45.5913 37.0888 44.383 35.6388 42.933Z" fill="#FF6D00"/>
</svg>

<?xml version="1.0" encoding="utf-8"?>
<!-- Generator: Adobe Illustrator 15.1.0, SVG Export Plug-In . SVG Version: 6.00 Build 0)  -->
<!DOCTYPE svg PUBLIC "-//W3C//DTD SVG 1.1//EN" "http://www.w3.org/Graphics/SVG/1.1/DTD/svg11.dtd">
<svg version="1.1" id="Layer_1" xmlns="http://www.w3.org/2000/svg" xmlns:xlink="http://www.w3.org/1999/xlink" x="0px" y="0px"
	 width="59px" height="59px" viewBox="0 0 59 59" enable-background="new 0 0 59 59" xml:space="preserve">
<path fill="#01712D" d="M11.472,42.934c-2.417-2.659-3.867-5.559-3.867-10.393c0-8.458,6.042-15.95,14.5-19.816l2.175,3.142
	c-7.975,4.35-9.667,9.908-10.15,13.533c1.208-0.725,2.9-0.966,4.592-0.725c4.35,0.483,7.733,3.866,7.733,8.458
	c0,2.176-0.967,4.35-2.417,6.042c-1.691,1.691-3.625,2.417-6.042,2.417C15.339,45.592,12.922,44.383,11.472,42.934z M35.639,42.934
	c-2.416-2.659-3.867-5.559-3.867-10.393c0-8.458,6.043-15.95,14.5-19.816l2.176,3.142c-7.975,4.35-9.667,9.908-10.15,13.533
	c1.209-0.725,2.9-0.966,4.592-0.725c4.35,0.483,7.733,3.866,7.733,8.458c0,2.176-0.967,4.35-2.417,6.042
	c-1.449,1.691-3.625,2.417-6.041,2.417C39.506,45.592,37.089,44.383,35.639,42.934z"/>
</svg>
